packages/bezier-icons/icons/username.svg

<svg width="24" height="24" viewBox="0 0 24 24" fill="none" xmlns="http://www.w3.org/2000/svg">
<path fill-rule="evenodd" clip-rule="evenodd" d="M14.4847 19.6071C14.962 19.4513 15.5006 19.6462 15.7098 20.1026C15.9609 20.6502 15.7218 21.3041 15.1499 21.4937C13.5186 22.0348 11.7522 22.1498 9.97661 21.8004C5.88818 20.9958 2.81438 17.8084 2.13788 13.686C1.01726 6.85134 6.85132 1.01766 13.6856 2.1384C17.8978 2.82949 21.2631 6.25464 21.8869 10.4798C22.2103 12.6647 21.8313 14.8148 20.8345 16.69C20.1154 18.0411 18.4707 18.6123 17.0505 18.0352C16.2195 17.6988 15.5983 17.0182 15.3235 16.1975C14.3634 17.0686 13.1016 17.5981 11.7166 17.5981C8.69829 17.5981 6.26561 15.0846 6.26561 12.0001C6.26561 8.91489 8.69799 6.4021 11.7166 6.4021C13.0433 6.4021 14.2569 6.88773 15.2005 7.69409C15.3091 7.29414 15.6748 7 16.1091 7C16.629 7 17.0505 7.42149 17.0505 7.94142V15.2402C17.0505 15.6538 17.4185 16.0265 17.8022 16.1818C18.2849 16.3779 18.837 16.1862 19.0687 15.7508C19.8659 14.2511 20.1689 12.5323 19.9084 10.7723C19.4116 7.4069 16.7147 4.66212 13.3619 4.11202C7.87751 3.21265 3.21224 7.87763 4.1115 13.3623C4.65306 16.6624 7.09547 19.195 10.3628 19.838C11.7846 20.1179 13.1884 20.0303 14.4847 19.6071ZM15.1676 12.0001C15.1676 13.994 13.6149 15.5981 11.7166 15.5981C9.81775 15.5981 8.26561 13.9944 8.26561 12.0001C8.26561 10.0052 9.81738 8.4021 11.7166 8.4021C13.6152 8.4021 15.1676 10.0056 15.1676 12.0001Z" fill="#313234"/>
</svg>

<svg xmlns="http://www.w3.org/2000/svg" width="24" height="24" fill="none" viewBox="0 0 24 24"><path fill="#313234" fill-rule="evenodd" d="M14.485 19.607c.477-.156 1.016.04 1.225.496.25.547.012 1.201-.56 1.39a10.14 10.14 0 0 1-5.173.307c-4.089-.804-7.163-3.992-7.84-8.114A10.01 10.01 0 0 1 13.687 2.138c4.212.691 7.577 4.117 8.2 8.342a10.02 10.02 0 0 1-1.052 6.21c-.719 1.351-2.363 1.922-3.783 1.345a3.02 3.02 0 0 1-1.727-1.837 5.35 5.35 0 0 1-3.607 1.4c-3.019 0-5.451-2.513-5.451-5.598s2.432-5.598 5.45-5.598a5.34 5.34 0 0 1 3.485 1.292.942.942 0 0 1 1.85.247v7.3c0 .413.368.785.751.94.483.197 1.035.005 1.267-.43.797-1.5 1.1-3.219.84-4.979-.497-3.365-3.194-6.11-6.547-6.66a8.01 8.01 0 0 0-9.25 9.25c.541 3.3 2.983 5.833 6.25 6.476a8.14 8.14 0 0 0 4.123-.23M15.168 12c0 1.994-1.553 3.598-3.451 3.598-1.9 0-3.451-1.604-3.451-3.598 0-1.995 1.551-3.598 3.45-3.598s3.452 1.604 3.452 3.598" clip-rule="evenodd"/></svg>
